static/img/kroki/c35b93107439c1de179fcbc236bda1fc.svg

<?xml version="1.0" encoding="us-ascii" standalone="no"?><svg xmlns="http://www.w3.org/2000/svg" xmlns:xlink="http://www.w3.org/1999/xlink" contentStyleType="text/css" height="152px" preserveAspectRatio="none" style="width:422px;height:152px;" version="1.1" viewBox="0 0 422 152" width="422px" zoomAndPan="magnify"><defs/><g><!--class azure_sql_server_database--><g id="elem_azure_sql_server_database"><rect codeLine="23" fill="#3D176E" height="39.7891" id="azure_sql_server_database" rx="2.5" ry="2.5" style="stroke:#000D19;stroke-width:0.5;" width="265" x="78.5" y="7"/><ellipse cx="93.5" cy="26.8945" fill="#ADD1B2" rx="11" ry="11" style="stroke:#181818;stroke-width:1.0;"/><path d="M96.4688,32.5352 Q95.8906,32.832 95.25,32.9727 Q94.6094,33.1289 93.9063,33.1289 Q91.4063,33.1289 90.0781,31.4883 Q88.7656,29.832 88.7656,26.707 Q88.7656,23.582 90.0781,21.9258 Q91.4063,20.2695 93.9063,20.2695 Q94.6094,20.2695 95.25,20.4258 Q95.9063,20.582 96.4688,20.8789 L96.4688,23.5977 Q95.8438,23.0195 95.25,22.7539 Q94.6563,22.4727 94.0313,22.4727 Q92.6875,22.4727 92,23.5508 Q91.3125,24.6133 91.3125,26.707 Q91.3125,28.8008 92,29.8789 Q92.6875,30.9414 94.0313,30.9414 Q94.6563,30.9414 95.25,30.6758 Q95.8438,30.3945 96.4688,29.8164 L96.4688,32.5352 Z " fill="#000000"/><text fill="#D9B8FF" font-family="Helvetica" font-size="17" lengthAdjust="spacing" textLength="223" x="112.5" y="32.7798">azure_sql_server_database</text></g><!--class azure_sql_server_database_workload_group--><g id="elem_azure_sql_server_database_workload_group"><rect codeLine="26" fill="#3D176E" height="39.7891" id="azure_sql_server_database_workload_group" rx="2.5" ry="2.5" style="stroke:#000D19;stroke-width:0.5;" width="408" x="7" y="106.79"/><ellipse cx="22" cy="126.6845" fill="#ADD1B2" rx="11" ry="11" style="stroke:#181818;stroke-width:1.0;"/><path d="M24.9688,132.3252 Q24.3906,132.622 23.75,132.7627 Q23.1094,132.9189 22.4063,132.9189 Q19.9063,132.9189 18.5781,131.2783 Q17.2656,129.622 17.2656,126.497 Q17.2656,123.372 18.5781,121.7158 Q19.9063,120.0595 22.4063,120.0595 Q23.1094,120.0595 23.75,120.2158 Q24.4063,120.372 24.9688,120.6689 L24.9688,123.3877 Q24.3438,122.8095 23.75,122.5439 Q23.1563,122.2627 22.5313,122.2627 Q21.1875,122.2627 20.5,123.3408 Q19.8125,124.4033 19.8125,126.497 Q19.8125,128.5908 20.5,129.6689 Q21.1875,130.7314 22.5313,130.7314 Q23.1563,130.7314 23.75,130.4658 Q24.3438,130.1845 24.9688,129.6064 L24.9688,132.3252 Z " fill="#000000"/><text fill="#D9B8FF" font-family="Helvetica" font-size="17" lengthAdjust="spacing" textLength="366" x="41" y="132.5698">azure_sql_server_database_workload_group</text></g><!--link azure_sql_server_database to azure_sql_server_database_workload_group--><g id="link_azure_sql_server_database_azure_sql_server_database_workload_group"><path codeLine="29" d="M211,47.22 C211,64.36 211,83.27 211,100.41 " fill="none" id="azure_sql_server_database-to-azure_sql_server_database_workload_group" style="stroke:#1A83AF;stroke-width:2.0;"/><polygon fill="#1A83AF" points="211,106.41,215,97.41,211,101.41,207,97.41,211,106.41" style="stroke:#1A83AF;stroke-width:2.0;"/></g><!--SRC=[ZP11IyD048Nl-HKBEHSQWxQz2B5Gz5B4UXC9ayniioJPZRFRbbRyxngZiYQszJhlc_VUJA6G1DMDsukQwepO1hPKkW66MYJCPZStbM4HIWaodlJ5XT7kBB24ciGjLLjoAeS-yLYelDHahRZmf1l8opMRZSREtZ5e-o6HTXurhy3Qn3bMsSQHLmPdsLJAFjat3MEC9bSqm0mZyHSo7eynclMHir4dx_uXLkf08lAVjZIE1ZK74P_KoPOjuPKS7Fgj7-ru3uXAhyMbDtleEh4c_ZLV5O1crz8IAkl7M4TCnkqRcW-kejaKvUHF-EuO7EJjwmGSDaofVQbIIxmbJX4SP619l0R1spaetHakAmEOjX5DjtFSSlGKHiaqJXRFe-j_cmRl]--></g></svg>

<svg xmlns="http://www.w3.org/2000/svg" width="422" height="152" viewBox="0 0 422 152"><rect width="265" height="39.789" x="78.5" y="7" fill="#3D176E" rx="2.5" ry="2.5" style="stroke:#000d19;stroke-width:.5"/><circle cx="93.5" cy="26.895" r="11" fill="#ADD1B2" style="stroke:#181818;stroke-width:1"/><path d="M96.469 32.535q-.578.297-1.219.438-.64.156-1.344.156-2.5 0-3.828-1.64-1.312-1.657-1.312-4.782t1.312-4.781q1.328-1.656 3.828-1.656.703 0 1.344.156.656.156 1.219.453v2.719q-.625-.578-1.219-.844-.594-.281-1.219-.281-1.344 0-2.031 1.078-.687 1.062-.687 3.156T92 29.879q.688 1.062 2.031 1.062.625 0 1.219-.265.594-.281 1.219-.86z"/><text x="112.5" y="32.78" fill="#D9B8FF" font-family="Helvetica" font-size="17" textLength="223">azure_sql_server_database</text><rect width="408" height="39.789" x="7" y="106.79" fill="#3D176E" rx="2.5" ry="2.5" style="stroke:#000d19;stroke-width:.5"/><circle cx="22" cy="126.684" r="11" fill="#ADD1B2" style="stroke:#181818;stroke-width:1"/><path d="M24.969 132.325q-.578.297-1.219.438-.64.156-1.344.156-2.5 0-3.828-1.64-1.312-1.657-1.312-4.782t1.312-4.781q1.328-1.656 3.828-1.656.703 0 1.344.156.656.156 1.219.453v2.719q-.625-.579-1.219-.844-.594-.281-1.219-.281-1.343 0-2.031 1.078-.687 1.062-.687 3.156t.687 3.172q.688 1.062 2.031 1.062.625 0 1.219-.265.594-.281 1.219-.86z"/><text x="41" y="132.57" fill="#D9B8FF" font-family="Helvetica" font-size="17" textLength="366">azure_sql_server_database_workload_group</text><path fill="none" d="M211 47.22v53.19" style="stroke:#1a83af;stroke-width:2"/><path fill="#1A83AF" d="m211 106.41 4-9-4 4-4-4z" style="stroke:#1a83af;stroke-width:2"/></svg>
